Obsidian/actions/24s/stroke-to-path.svg

<svg height="24" viewBox="0 0 24 24" width="24" xmlns="http://www.w3.org/2000/svg"><g fill="#bebebe" transform="translate(4 4)"><path d="m4.9746094-.02148438v2.60156248c-.9045.685775-1.7082582 1.4909915-2.3925782 2.3984375h-2.60742183v4h.60742188c-.41863 1.4377024-.6073075 2.9855694-.4921875 4.6152344a.50026183.50026183 0 1 0 .99804685-.070312c-.11427998-1.617654.0894169-3.142571.5292969-4.5449224h2.3574219v-4h-.1425782c.3529-.409385.7345582-.7906482 1.1425782-1.1445312v.1445312h4v-2.3808594c1.4076196-.4486479 2.9344686-.6580142 4.5429686-.5507812a.50012701.50012701 0 0 0 .066406-.99804687c-1.61975-.10798301-3.168075.08717487-4.6093746.51367187v-.58398438zm4 3.99999998v2.4453125c-.53379.313142-1.0168294.6789428-1.4433594 1.1054688-.42816.428163-.795465.9129647-1.109375 1.4492187h-2.4472656v4.0000004h1.1875c-.10147.784877-.1523438 1.627892-.1523438 2.529296a.50005012.50005012 0 1 0 1 0c0-.922335.0576025-1.759205.1640625-2.529296h1.8007813v-4.0000004h-.3554688c.19105-.265084.3933406-.5163875.6191406-.7421875.2242-.224193.4734082-.4253003.7363282-.6152343v.3574218h3.9999996v-1.8066406c.77167-.106989 1.610467-.1640625 2.535157-.1640625a.50005012.50005012 0 1 0 0-1c-.90367 0-1.748607.0503597-2.535157.1523437v-1.1816406z"/><path d="m13.755859 1.0039062a.50012701.50012701 0 0 1 -.238281.0429688c-1.6085-.107235-3.135349.1021332-4.5429686.5507812v2.3808594h3.9999996v1.1816406c.73615-.0954499 1.528458-.1423924 2.367188-.1484374zm-4.7812496 2.9746094h-4v-.1445312c-.40802.353883-.7896782.7351462-1.1425782 1.1445312h.1425782v4h2.4472656c.31391-.536254.681215-1.0210557 1.109375-1.4492187.42653-.426526.9095694-.7923268 1.4433594-1.1054688zm-5 5h-2.3574219c-.43988 1.4023514-.64357688 2.9272714-.5292969 4.5449224a.50026183.50026183 0 0 1 -.0117187.144531l3.9414062 1.560547c.01-.794086.0539013-1.548878.1445313-2.25h-1.1875z" opacity=".3"/></g></svg>

<svg xmlns="http://www.w3.org/2000/svg" width="24" height="24" viewBox="0 0 24 24">
 <defs>
  <style id="current-color-scheme" type="text/css">
   .ColorScheme-Text { color:#bebebe; } .ColorScheme-Highlight { color:#4285f4; }
  </style>
 </defs>
 <path style="fill:currentColor" class="ColorScheme-Text" d="M 4.9746094 -0.021484375 L 4.9746094 2.5800781 C 4.0701094 3.2658531 3.2663512 4.0710696 2.5820312 4.9785156 L -0.025390625 4.9785156 L -0.025390625 8.9785156 L 0.58203125 8.9785156 C 0.16340125 10.416218 -0.02527625 11.964085 0.08984375 13.59375 A 0.50026183 0.50026183 0 1 0 1.0878906 13.523438 C 0.97361062 11.905784 1.1773075 10.380867 1.6171875 8.9785156 L 3.9746094 8.9785156 L 3.9746094 4.9785156 L 3.8320312 4.9785156 C 4.1849312 4.5691306 4.5665894 4.1878674 4.9746094 3.8339844 L 4.9746094 3.9785156 L 8.9746094 3.9785156 L 8.9746094 1.5976562 C 10.382229 1.1490083 11.909078 0.939642 13.517578 1.046875 A 0.50012701 0.50012701 0 0 0 13.583984 0.048828125 C 11.964234 -0.059154875 10.415909 0.136003 8.9746094 0.5625 L 8.9746094 -0.021484375 L 4.9746094 -0.021484375 z M 8.9746094 3.9785156 L 8.9746094 6.4238281 C 8.4408194 6.7369701 7.95778 7.1027709 7.53125 7.5292969 C 7.10309 7.9574599 6.735785 8.4422616 6.421875 8.9785156 L 3.9746094 8.9785156 L 3.9746094 12.978516 L 5.1621094 12.978516 C 5.0606394 13.763393 5.0097656 14.606408 5.0097656 15.507812 A 0.50005012 0.50005012 0 1 0 6.0097656 15.507812 C 6.0097656 14.585477 6.0673681 13.748607 6.1738281 12.978516 L 7.9746094 12.978516 L 7.9746094 8.9785156 L 7.6191406 8.9785156 C 7.8101906 8.7134316 8.0124812 8.4621281 8.2382812 8.2363281 C 8.4624812 8.0121351 8.7116894 7.8110278 8.9746094 7.6210938 L 8.9746094 7.9785156 L 12.974609 7.9785156 L 12.974609 6.171875 C 13.746279 6.064886 14.585076 6.0078125 15.509766 6.0078125 A 0.50005012 0.50005012 0 1 0 15.509766 5.0078125 C 14.606096 5.0078125 13.761159 5.0581722 12.974609 5.1601562 L 12.974609 3.9785156 L 8.9746094 3.9785156 z" transform="translate(4 4)"/>
 <path style="fill:currentColor;opacity:0.3" class="ColorScheme-Text" d="M 13.755859 1.0039062 A 0.50012701 0.50012701 0 0 1 13.517578 1.046875 C 11.909078 0.93964 10.382229 1.1490082 8.9746094 1.5976562 L 8.9746094 3.9785156 L 12.974609 3.9785156 L 12.974609 5.1601562 C 13.710759 5.0647063 14.503067 5.0177638 15.341797 5.0117188 L 13.755859 1.0039062 z M 8.9746094 3.9785156 L 4.9746094 3.9785156 L 4.9746094 3.8339844 C 4.5665894 4.1878674 4.1849312 4.5691306 3.8320312 4.9785156 L 3.9746094 4.9785156 L 3.9746094 8.9785156 L 6.421875 8.9785156 C 6.735785 8.4422616 7.10309 7.9574599 7.53125 7.5292969 C 7.95778 7.1027709 8.4408194 6.7369701 8.9746094 6.4238281 L 8.9746094 3.9785156 z M 3.9746094 8.9785156 L 1.6171875 8.9785156 C 1.1773075 10.380867 0.97361062 11.905787 1.0878906 13.523438 A 0.50026183 0.50026183 0 0 1 1.0761719 13.667969 L 5.0175781 15.228516 C 5.0275781 14.43443 5.0714794 13.679638 5.1621094 12.978516 L 3.9746094 12.978516 L 3.9746094 8.9785156 z" transform="translate(4 4)"/>
</svg>
